data/resources/icon/scalable/actions/puzzle-piece-symbolic.svg

<?xml version="1.0" encoding="UTF-8"?>
<svg xmlns="http://www.w3.org/2000/svg" height="16px" viewBox="0 0 16 16" width="16px"><path d="m 6.5 1 c -0.832031 0 -1.5 0.667969 -1.5 1.5 v 1.5 h -3 c -0.554688 0 -1 0.445312 -1 1 v 3 h 1.5 c 0.832031 0 1.5 0.667969 1.5 1.5 s -0.667969 1.5 -1.5 1.5 h -1.5 v 3 c 0 0.554688 0.445312 1 1 1 h 3 v -1.5 c 0 -0.832031 0.667969 -1.5 1.5 -1.5 s 1.5 0.667969 1.5 1.5 v 1.5 h 3 c 0.554688 0 1 -0.445312 1 -1 v -3 h 1.5 c 0.832031 0 1.5 -0.667969 1.5 -1.5 s -0.667969 -1.5 -1.5 -1.5 h -1.5 v -3 c 0 -0.554688 -0.445312 -1 -1 -1 h -3 v -1.5 c 0 -0.832031 -0.667969 -1.5 -1.5 -1.5 z m 0 0" fill="#888888"/></svg>

<svg viewBox="0 0 16 16"><path fill="#888" d="M6.5 1C5.667969 1 5 1.667969 5 2.5V4H2c-.554688 0-1 .445312-1 1v3h1.5C3.332031 8 4 8.667969 4 9.5S3.332031 11 2.5 11H1v3c0 .554688.445312 1 1 1h3v-1.5c0-.832031.667969-1.5 1.5-1.5s1.5.667969 1.5 1.5V15h3c.554688 0 1-.445312 1-1v-3h1.5c.832031 0 1.5-.667969 1.5-1.5S14.332031 8 13.5 8H12V5c0-.554688-.445312-1-1-1H8V2.5C8 1.667969 7.332031 1 6.5 1m0 0"/></svg>
